images/global/icons/social-media/icon-linkedin.svg

<?xml version="1.0" encoding="UTF-8" standalone="no"?>
<svg width="44px" height="44px" viewBox="0 0 44 44" version="1.1" xmlns="http://www.w3.org/2000/svg" xmlns:xlink="http://www.w3.org/1999/xlink">
    <!-- Generator: Sketch 3.8.3 (29802) - http://www.bohemiancoding.com/sketch -->
    <title>linkedin</title>
    <desc>Created with Sketch.</desc>
    <defs>
        <circle id="path-1" cx="22" cy="22" r="22"></circle>
        <mask id="mask-2" maskContentUnits="userSpaceOnUse" maskUnits="objectBoundingBox" x="0" y="0" width="44" height="44" fill="white">
            <use xlink:href="#path-1"></use>
        </mask>
    </defs>
    <g id="Social-Icons" stroke="none" stroke-width="1" fill="none" fill-rule="evenodd">
        <g transform="translate(-420.000000, -60.000000)" id="linkedin">
            <g transform="translate(420.000000, 60.000000)">
                <rect id="Rectangle" x="0" y="0" width="44" height="44"></rect>
                <use id="Oval" stroke="#091F2F" mask="url(#mask-2)" stroke-width="4" xlink:href="#path-1"></use>
                <path d="M12.5044685,18.4131131 L16.4026341,18.4131131 L16.4026341,31.9987194 L12.5044685,31.9987194 L12.5044685,18.4131131 Z M14.3541863,16.7137918 L14.3259643,16.7137918 C12.9148636,16.7137918 12,15.6752465 12,14.3600973 C12,13.0180561 12.9419097,12 14.3812324,12 C15.8193791,12 16.7036689,13.0154949 16.7318909,14.3562556 C16.7318909,15.6714048 15.8193791,16.7137918 14.3541863,16.7137918 L14.3541863,16.7137918 Z M32,32 L27.5797272,32 L27.5797272,24.9683698 C27.5797272,23.1281854 26.8882879,21.8732232 25.3678269,21.8732232 C24.2048448,21.8732232 23.5580903,22.7196824 23.2570555,23.537969 C23.1441675,23.8299398 23.1618062,24.2384428 23.1618062,24.6482264 L23.1618062,32 L18.7826905,32 C18.7826905,32 18.8391345,19.5451402 18.7826905,18.4131131 L23.1618062,18.4131131 L23.1618062,20.5452683 C23.420508,19.6130106 24.8198495,18.2824946 27.0529163,18.2824946 C29.8233772,18.2824946 32,20.2379306 32,24.4446152 L32,32 L32,32 Z" id="Shape" fill="#091F2F"></path>
            </g>
        </g>
    </g>
</svg>

<svg width="44" height="44" viewBox="0 0 44 44" xmlns="http://www.w3.org/2000/svg" xmlns:xlink="http://www.w3.org/1999/xlink"><title>linkedin</title><defs><circle id="a" cx="22" cy="22" r="22"/><mask id="b" x="0" y="0" width="44" height="44" fill="#fff"><use xlink:href="#a"/></mask></defs><g fill="none" fill-rule="evenodd"><path d="M0 0h44v44H0z"/><use stroke="#091F2F" mask="url(#b)" stroke-width="4" xlink:href="#a"/><path d="M12.504 18.413h3.9V32h-3.9V18.412zm1.85-1.7h-.028c-1.41 0-2.326-1.038-2.326-2.353 0-1.342.942-2.36 2.38-2.36 1.44 0 2.324 1.015 2.352 2.356 0 1.315-.913 2.358-2.378 2.358zM32 32h-4.42v-7.032c0-1.84-.692-3.095-2.212-3.095-1.163 0-1.81.847-2.11 1.665-.114.292-.096.7-.096 1.11V32h-4.38s.057-12.455 0-13.587h4.38v2.132c.26-.932 1.658-2.263 3.89-2.263 2.77 0 4.948 1.956 4.948 6.163V32z" fill="#091F2F"/></g></svg>
